packages/ffe-icons/icons/filled/md/heap_snapshot_large.svg

<svg xmlns="http://www.w3.org/2000/svg" height="24" viewBox="0 -960 960 960" width="24"><path d="M579.955-230.001q20.814 0 35.429-14.57 14.615-14.57 14.615-35.384t-14.57-35.429q-14.57-14.615-35.384-14.615t-35.429 14.57q-14.615 14.57-14.615 35.384t14.57 35.429q14.57 14.615 35.384 14.615Zm-222.647-27.307q8.308 8.307 20.948 8.307 12.641 0 20.82-8.307l204-204q8.308-8.18 8.308-20.82 0-12.641-8.308-20.948-8.307-8.308-20.948-8.308t-20.82 8.308L356.924-298.692q-8.308 8.308-8.116 20.692.193 12.384 8.5 20.692Zm22.647-172.693q20.814 0 35.429-14.57 14.615-14.57 14.615-35.384t-14.57-35.429q-14.57-14.615-35.384-14.615t-35.429 14.57q-14.615 14.57-14.615 35.384t14.57 35.429q14.57 14.615 35.384 14.615Zm-127.646 330q-30.308 0-51.308-21t-21-51.308v-615.382q0-30.308 21-51.308t51.308-21h317.692l209.998 209.998v477.692q0 30.308-21 51.308t-51.308 21H252.309Zm467.691-520L540.001-800v119.231q0 25.307 17.731 43.037 17.73 17.731 43.037 17.731H720Z"/></svg>

<svg xmlns="http://www.w3.org/2000/svg" height="24" viewBox="0 -960 960 960" width="24"><path d="M579.95-230q20.82 0 35.43-14.57Q630-259.14 630-279.95q0-20.82-14.57-35.43Q600.86-330 580.05-330q-20.82 0-35.43 14.57Q530-300.86 530-280.05q0 20.82 14.57 35.43Q559.14-230 579.95-230Zm-222.64-27.31q8.31 8.31 20.95 8.31 12.64 0 20.82-8.31l204-204q8.3-8.18 8.3-20.82t-8.3-20.95q-8.31-8.3-20.95-8.3-12.64 0-20.82 8.3L356.92-298.69q-8.3 8.31-8.11 20.69.19 12.38 8.5 20.69ZM379.95-430q20.82 0 35.43-14.57Q430-459.14 430-479.95q0-20.82-14.57-35.43Q400.86-530 380.05-530q-20.82 0-35.43 14.57Q330-500.86 330-480.05q0 20.82 14.57 35.43Q359.14-430 379.95-430ZM252.31-100Q222-100 201-121q-21-21-21-51.31v-615.38Q180-818 201-839q21-21 51.31-21H570l210 210v477.69Q780-142 759-121q-21 21-51.31 21H252.31ZM720-620 540-800v119.23q0 25.31 17.73 43.04T600.77-620H720Z"/></svg>
